X:108
T:Vals ur Andreas Dahlgrens notbok nr 108
S:efter Andreas Dahlgren
R:Vals
Z:Robert Boström 2017-03-12
O:Fågelvik, Tryserum, Småland
B:Länk till bild
B:Andreas Dahlgrens Notbok
Q:60
M:3/8
L:1/16
N: [[!Sverige]], [[!Småland]], [[!Tryserum]],[[!Fågelvik]]
K:C
GF|:E3F DE|CEGce2|edfdBd|dcecG2|GFEFDE|CEGce2|edfdBd|1c4GF:|2c4EG||
|:c4e2|cEGce2|g2agfd|cegc'g2|c4e2|cEGce2|g2agfd|1c4EG:|2c3 Gce||
|:g3e fd|eCEGce|fDGBdf|eCEGce|g3e fd|eCEGce|fDGBde|1c3 Gce:|2c6||

